public/img/workshop-arrow-1.svg

<svg width="584" height="281" viewBox="0 0 584 281" fill="none" xmlns="http://www.w3.org/2000/svg">
<path d="M575 0L571.593 11.033L582.851 8.46692L575 0ZM1 165C0.169063 165.556 0.1691 165.556 0.169139 165.556C0.169154 165.557 0.169195 165.557 0.169226 165.557C0.169287 165.557 0.169355 165.557 0.16943 165.557C0.16958 165.557 0.169758 165.557 0.169964 165.558C0.170376 165.558 0.170899 165.559 0.171533 165.56C0.172803 165.562 0.174518 165.564 0.176682 165.568C0.18101 165.574 0.187131 165.583 0.195059 165.595C0.210915 165.618 0.233999 165.652 0.264427 165.696C0.325282 165.783 0.415509 165.912 0.536022 166.079C0.77705 166.415 1.13922 166.907 1.62986 167.542L3.21303 166.32C2.73655 165.703 2.388 165.229 2.16008 164.912C2.04613 164.754 1.96233 164.634 1.90777 164.556C1.8805 164.516 1.86053 164.487 1.84776 164.468C1.84138 164.459 1.83679 164.452 1.83399 164.448C1.83259 164.446 1.83164 164.445 1.83113 164.444C1.83088 164.444 1.83073 164.443 1.8307 164.443C1.83069 164.443 1.8307 164.443 1.83074 164.443C1.83076 164.443 1.83078 164.443 1.83082 164.443C1.83083 164.443 1.83086 164.444 1.83087 164.444C1.8309 164.444 1.83094 164.444 1 165ZM4.83334 171.448C5.79295 172.56 6.91026 173.811 8.19402 175.186L9.65589 173.821C8.39013 172.466 7.29022 171.234 6.3474 170.141L4.83334 171.448ZM11.6871 178.804C12.7941 179.914 13.9882 181.081 15.2726 182.297L16.6478 180.845C15.3774 179.642 14.197 178.489 13.1035 177.392L11.6871 178.804ZM18.9524 185.69C20.1501 186.765 21.4113 187.872 22.7379 189.007L24.0377 187.487C22.7236 186.363 21.4746 185.267 20.289 184.202L18.9524 185.69ZM26.6206 192.249C27.858 193.259 29.1441 194.287 30.4802 195.331L31.7116 193.755C30.3867 192.72 29.1116 191.701 27.8851 190.7L26.6206 192.249ZM34.4725 198.384C35.7791 199.363 37.1281 200.353 38.5202 201.353L39.6874 199.729C38.3059 198.736 36.9675 197.754 35.6713 196.783L34.4725 198.384ZM42.5827 204.216C43.9439 205.156 45.3426 206.104 46.7794 207.059L47.8861 205.393C46.4594 204.445 45.0708 203.504 43.7195 202.57L42.5827 204.216ZM50.9126 209.753C52.3129 210.65 53.7466 211.55 55.2142 212.455L56.2635 210.752C54.8055 209.854 53.3814 208.959 51.9906 208.069L50.9126 209.753ZM59.4272 215.005C60.855 215.854 62.3126 216.705 63.8005 217.558L64.7951 215.823C63.3164 214.975 61.8679 214.129 60.4492 213.286L59.4272 215.005ZM68.1069 219.983C69.5531 220.784 71.0262 221.585 72.5265 222.387L73.4689 220.623C71.9773 219.826 70.5129 219.029 69.0753 218.234L68.1069 219.983ZM76.9418 224.705C78.3995 225.457 79.8814 226.209 81.3879 226.959L82.2801 225.169C80.7819 224.423 79.3083 223.675 77.8589 222.927L76.9418 224.705ZM85.929 229.184C87.3925 229.889 88.878 230.592 90.3857 231.294L91.2296 229.481C89.7298 228.782 88.2522 228.083 86.7966 227.382L85.929 229.184ZM94.9757 233.394C96.4711 234.066 97.9874 234.737 99.5247 235.405L100.322 233.571C98.7924 232.906 97.2837 232.239 95.7959 231.57L94.9757 233.394ZM104.1 237.361C105.646 238.011 107.212 238.658 108.798 239.302L109.55 237.449C107.971 236.807 106.413 236.164 104.875 235.517L104.1 237.361ZM113.365 241.125C114.901 241.728 116.455 242.328 118.028 242.925L118.738 241.055C117.172 240.461 115.625 239.864 114.096 239.263L113.365 241.125ZM122.781 244.698C124.305 245.256 125.846 245.812 127.404 246.364L128.072 244.479C126.521 243.929 124.987 243.376 123.469 242.82L122.781 244.698ZM132.129 248.01C133.715 248.553 135.319 249.093 136.939 249.628L137.567 247.729C135.953 247.196 134.356 246.659 132.777 246.118L132.129 248.01ZM141.61 251.146C143.182 251.648 144.77 252.147 146.374 252.641L146.964 250.73C145.366 250.237 143.784 249.741 142.218 249.241L141.61 251.146ZM151.233 254.113C152.795 254.577 154.371 255.038 155.962 255.495L156.514 253.573C154.929 253.118 153.359 252.659 151.804 252.196L151.233 254.113ZM160.748 256.845C162.357 257.291 163.981 257.732 165.62 258.17L166.136 256.237C164.503 255.802 162.885 255.361 161.281 254.917L160.748 256.845ZM170.449 259.435C172.032 259.843 173.629 260.246 175.239 260.645L175.721 258.704C174.116 258.306 172.525 257.904 170.947 257.498L170.449 259.435ZM180.11 261.83C181.747 262.221 183.398 262.607 185.062 262.989L185.509 261.04C183.85 260.659 182.206 260.274 180.574 259.885L180.11 261.83ZM189.847 264.066C191.454 264.421 193.072 264.771 194.704 265.117L195.119 263.161C193.493 262.816 191.88 262.467 190.279 262.113L189.847 264.066ZM199.634 266.143C201.269 266.476 202.916 266.804 204.575 267.128L204.958 265.165C203.304 264.842 201.663 264.515 200.033 264.183L199.634 266.143ZM209.406 268.053C211.027 268.357 212.66 268.656 214.305 268.951L214.658 266.983C213.019 266.689 211.391 266.39 209.774 266.087L209.406 268.053ZM219.274 269.824C220.913 270.105 222.564 270.382 224.226 270.655L224.549 268.681C222.892 268.409 221.247 268.133 219.612 267.853L219.274 269.824ZM229.086 271.434C230.716 271.69 232.357 271.941 234.009 272.187L234.305 270.209C232.658 269.963 231.021 269.713 229.395 269.458L229.086 271.434ZM238.997 272.914C240.65 273.15 242.315 273.38 243.989 273.606L244.257 271.624C242.587 271.399 240.927 271.169 239.278 270.934L238.997 272.914ZM248.862 274.248C250.496 274.457 252.139 274.663 253.793 274.864L254.034 272.878C252.385 272.678 250.746 272.473 249.116 272.264L248.862 274.248ZM258.783 275.453C260.457 275.645 262.14 275.833 263.833 276.016L264.048 274.028C262.359 273.845 260.68 273.658 259.011 273.466L258.783 275.453ZM268.719 276.529C270.352 276.696 271.993 276.858 273.644 277.015L273.834 275.025C272.188 274.867 270.55 274.705 268.922 274.54L268.719 276.529ZM278.623 277.476C280.292 277.625 281.971 277.77 283.658 277.91L283.824 275.917C282.14 275.777 280.466 275.633 278.801 275.484L278.623 277.476ZM288.651 278.311C290.278 278.436 291.914 278.558 293.557 278.675L293.7 276.68C292.06 276.563 290.428 276.442 288.805 276.317L288.651 278.311ZM298.515 279.015C300.175 279.124 301.845 279.229 303.523 279.329L303.642 277.333C301.968 277.232 300.303 277.128 298.646 277.019L298.515 279.015ZM308.582 279.617C310.226 279.706 311.877 279.791 313.537 279.872L313.634 277.874C311.978 277.794 310.33 277.709 308.69 277.62L308.582 279.617ZM318.462 280.099C320.111 280.17 321.769 280.237 323.434 280.3L323.51 278.302C321.848 278.239 320.194 278.172 318.548 278.1L318.462 280.099ZM328.454 280.478C330.135 280.532 331.824 280.583 333.521 280.629L333.576 278.63C331.882 278.584 330.197 278.533 328.519 278.479L328.454 280.478ZM338.474 280.752C340.11 280.789 341.753 280.821 343.403 280.849L343.437 278.85C341.79 278.821 340.151 278.789 338.519 278.753L338.474 280.752ZM348.375 280.923C350.04 280.943 351.712 280.96 353.392 280.972L353.407 278.972C351.73 278.96 350.061 278.943 348.4 278.923L348.375 280.923ZM358.453 280.997C359.3 280.999 360.149 281 361 281V279C360.151 279 359.303 278.999 358.458 278.997L358.453 280.997ZM361 281C361.866 281 362.728 280.997 363.587 280.992L363.575 278.992C362.72 278.997 361.862 279 361 279V281ZM368.702 280.93C370.395 280.899 372.074 280.857 373.74 280.806L373.679 278.807C372.021 278.858 370.35 278.899 368.666 278.93L368.702 280.93ZM378.701 280.621C380.342 280.55 381.97 280.468 383.586 280.376L383.473 278.38C381.866 278.471 380.246 278.552 378.614 278.623L378.701 280.621ZM388.538 280.062C390.254 279.941 391.956 279.809 393.643 279.666L393.473 277.673C391.796 277.816 390.105 277.947 388.398 278.067L388.538 280.062ZM398.66 279.203C400.318 279.037 401.962 278.861 403.591 278.673L403.362 276.686C401.743 276.873 400.109 277.048 398.461 277.213L398.66 279.203ZM408.437 278.078C410.116 277.859 411.781 277.628 413.429 277.385L413.138 275.406C411.5 275.647 409.847 275.877 408.177 276.095L408.437 278.078ZM418.46 276.6C420.12 276.326 421.764 276.041 423.393 275.743L423.033 273.776C421.416 274.071 419.783 274.355 418.134 274.627L418.46 276.6ZM428.231 274.814C429.855 274.488 431.463 274.149 433.054 273.798L432.624 271.845C431.044 272.193 429.448 272.529 427.836 272.854L428.231 274.814ZM438.041 272.648C439.685 272.251 441.312 271.842 442.92 271.42L442.412 269.485C440.817 269.904 439.203 270.31 437.572 270.703L438.041 272.648ZM447.693 270.115C449.281 269.663 450.851 269.199 452.404 268.722L451.817 266.81C450.278 267.283 448.721 267.743 447.146 268.191L447.693 270.115ZM457.278 267.165C458.883 266.632 460.469 266.086 462.035 265.526L461.362 263.643C459.81 264.197 458.239 264.739 456.648 265.267L457.278 267.165ZM466.676 263.806C468.232 263.209 469.769 262.598 471.286 261.973L470.525 260.124C469.022 260.742 467.501 261.347 465.959 261.939L466.676 263.806ZM475.97 259.976C477.51 259.296 479.03 258.602 480.528 257.894L479.673 256.086C478.191 256.786 476.687 257.473 475.162 258.146L475.97 259.976ZM484.96 255.729C486.474 254.966 487.965 254.188 489.434 253.396L488.485 251.636C487.032 252.419 485.557 253.188 484.059 253.944L484.96 255.729ZM493.847 250.938C495.296 250.104 496.722 249.257 498.126 248.395L497.081 246.691C495.692 247.542 494.282 248.38 492.85 249.204L493.847 250.938ZM502.328 245.735C503.753 244.804 505.155 243.858 506.533 242.898L505.39 241.257C504.028 242.206 502.643 243.141 501.234 244.061L502.328 245.735ZM510.597 239.978C511.93 238.99 513.239 237.988 514.526 236.973L513.287 235.403C512.016 236.405 510.723 237.395 509.406 238.371L510.597 239.978ZM518.464 233.768C519.753 232.686 521.017 231.59 522.257 230.482L520.924 228.99C519.699 230.085 518.451 231.168 517.178 232.236L518.464 233.768ZM525.907 227.118C527.135 225.951 528.337 224.771 529.516 223.579L528.093 222.173C526.93 223.35 525.742 224.516 524.529 225.668L525.907 227.118ZM532.991 219.952C534.125 218.731 535.235 217.499 536.321 216.254L534.814 214.939C533.741 216.168 532.645 217.385 531.525 218.591L532.991 219.952ZM539.578 212.405C540.644 211.105 541.685 209.795 542.702 208.473L541.117 207.253C540.112 208.558 539.084 209.853 538.032 211.137L539.578 212.405ZM545.682 204.479C546.669 203.113 547.633 201.737 548.572 200.351L546.917 199.229C545.989 200.598 545.037 201.958 544.061 203.307L545.682 204.479ZM551.326 196.158C552.22 194.751 553.091 193.335 553.94 191.911L552.221 190.887C551.383 192.295 550.522 193.694 549.638 195.085L551.326 196.158ZM556.456 187.545C557.272 186.082 558.064 184.611 558.835 183.134L557.061 182.209C556.299 183.671 555.516 185.125 554.709 186.571L556.456 187.545ZM561.084 178.672C561.82 177.161 562.533 175.643 563.225 174.12L561.404 173.293C560.72 174.8 560.014 176.301 559.286 177.796L561.084 178.672ZM565.236 169.535C565.887 167.995 566.517 166.45 567.126 164.901L565.265 164.169C564.662 165.702 564.038 167.232 563.394 168.756L565.236 169.535ZM568.907 160.204C569.479 158.634 570.031 157.061 570.563 155.486L568.668 154.846C568.141 156.406 567.595 157.964 567.028 159.518L568.907 160.204ZM572.111 150.718C572.61 149.117 573.089 147.515 573.549 145.912L571.627 145.36C571.171 146.949 570.696 148.537 570.202 150.123L572.111 150.718ZM574.871 141.1C575.299 139.475 575.707 137.851 576.097 136.227L574.152 135.76C573.765 137.37 573.361 138.981 572.937 140.591L574.871 141.1ZM577.214 131.345C577.569 129.715 577.906 128.087 578.226 126.462L576.264 126.076C575.947 127.688 575.612 129.303 575.26 130.919L577.214 131.345ZM579.149 121.515C579.439 119.869 579.712 118.226 579.968 116.589L577.992 116.279C577.738 117.905 577.467 119.534 577.179 121.167L579.149 121.515ZM580.696 111.635C580.925 109.969 581.138 108.309 581.335 106.656L579.349 106.42C579.153 108.061 578.942 109.709 578.715 111.363L580.696 111.635ZM581.878 101.717C582.048 100.035 582.203 98.3612 582.342 96.6966L580.349 96.5297C580.211 98.183 580.057 99.8452 579.888 101.515L581.878 101.717ZM582.717 91.7161C582.829 90.0432 582.926 88.3808 583.01 86.73L581.012 86.6291C580.929 88.2692 580.833 89.9207 580.721 91.5826L582.717 91.7161ZM583.223 81.705C583.28 80.043 583.324 78.3944 583.355 76.7603L581.355 76.7223C581.324 78.3463 581.281 79.9847 581.224 81.6362L583.223 81.705ZM583.412 71.6966C583.418 70.022 583.411 68.3647 583.392 66.726L581.392 66.7488C581.411 68.3777 581.418 70.0251 581.412 71.6895L583.412 71.6966ZM583.298 61.6987C583.253 60.0112 583.197 58.346 583.13 56.7048L581.132 56.7861C581.198 58.4179 581.254 60.0734 581.298 61.7511L583.298 61.6987ZM582.891 51.7126C582.798 50.0134 582.693 48.3433 582.58 46.7044L580.584 46.8428C580.698 48.4724 580.801 50.133 580.894 51.8226L582.891 51.7126ZM582.2 41.7328C582.057 40.0271 581.906 38.3604 581.747 36.7352L579.756 36.9298C579.914 38.5458 580.065 40.2031 580.207 41.8992L582.2 41.7328ZM581.224 31.7534C581.034 30.056 580.837 28.4127 580.637 26.8267L578.653 27.0777C578.852 28.6545 579.048 30.2884 579.237 31.9761L581.224 31.7534ZM579.963 21.7963C579.719 20.0742 579.473 18.4377 579.23 16.8923L577.255 17.2027C577.496 18.7384 577.74 20.365 577.982 22.0768L579.963 21.7963ZM578.427 12.0309C578.107 10.1899 577.802 8.5348 577.522 7.08027L575.558 7.45864C575.836 8.90156 576.139 10.5446 576.457 12.373L578.427 12.0309Z" fill="#715F7A"/>
</svg>

<svg width="584" height="281" fill="none" xmlns="http://www.w3.org/2000/svg"><path d="M575 0l-3.407 11.033 11.258-2.566L575 0zM1 165l-.83.556v.002l.002.002c0 .002.003.004.005.008l.018.027.07.101a51.939 51.939 0 001.365 1.846l1.583-1.222a51.685 51.685 0 01-1.053-1.408 22.368 22.368 0 01-.252-.356l-.06-.088-.014-.02-.003-.004v-.001.001L1 165zm3.833 6.448c.96 1.112 2.077 2.363 3.361 3.738l1.462-1.365a125.132 125.132 0 01-3.309-3.68l-1.514 1.307zm6.854 7.356a174.349 174.349 0 003.586 3.493l1.375-1.452a171.605 171.605 0 01-3.544-3.453l-1.417 1.412zm7.265 6.886a211.966 211.966 0 003.786 3.317l1.3-1.52a205.333 205.333 0 01-3.749-3.285l-1.337 1.488zm7.669 6.559a232.16 232.16 0 003.86 3.082l1.23-1.576a229.447 229.447 0 01-3.826-3.055l-1.264 1.549zm7.851 6.135a249.69 249.69 0 004.048 2.969l1.167-1.624a252.746 252.746 0 01-4.016-2.946l-1.199 1.601zm8.11 5.832c1.362.94 2.76 1.888 4.197 2.843l1.107-1.666a274.98 274.98 0 01-4.167-2.823l-1.136 1.646zm8.33 5.537c1.4.897 2.835 1.797 4.302 2.702l1.05-1.703a292.986 292.986 0 01-4.273-2.683l-1.078 1.684zm8.515 5.252c1.428.849 2.886 1.7 4.373 2.553l.995-1.735a325.504 325.504 0 01-4.346-2.537l-1.022 1.719zm8.68 4.978a337.86 337.86 0 004.42 2.404l.942-1.764a346.806 346.806 0 01-4.394-2.389l-.968 1.749zm8.835 4.722c1.458.752 2.94 1.504 4.446 2.254l.892-1.79a343.368 343.368 0 01-4.421-2.242l-.917 1.778zm8.987 4.479c1.463.705 2.949 1.408 4.457 2.11l.844-1.813a386.96 386.96 0 01-4.433-2.099l-.868 1.802zm9.047 4.21c1.495.672 3.011 1.343 4.549 2.011l.797-1.834a397.03 397.03 0 01-4.526-2.001l-.82 1.824zm9.124 3.967c1.546.65 3.112 1.297 4.698 1.941l.752-1.853a420.57 420.57 0 01-4.675-1.932l-.775 1.844zm9.265 3.764c1.536.603 3.09 1.203 4.663 1.8l.71-1.87a415.657 415.657 0 01-4.642-1.792l-.731 1.862zm9.416 3.573c1.524.558 3.065 1.114 4.623 1.666l.668-1.885a474.038 474.038 0 01-4.603-1.659l-.688 1.878zm9.348 3.312a465.98 465.98 0 004.81 1.618l.628-1.899a454.273 454.273 0 01-4.79-1.611l-.648 1.892zm9.481 3.136c1.572.502 3.16 1.001 4.764 1.495l.59-1.911c-1.598-.493-3.18-.989-4.746-1.489l-.608 1.905zm9.623 2.967c1.562.464 3.138.925 4.729 1.382l.552-1.922a498.647 498.647 0 01-4.71-1.377l-.571 1.917zm9.515 2.732c1.609.446 3.233.887 4.872 1.325l.516-1.933a517.869 517.869 0 01-4.855-1.32l-.533 1.928zm9.701 2.59c1.583.408 3.18.811 4.79 1.21l.482-1.941c-1.605-.398-3.196-.8-4.774-1.206l-.498 1.937zm9.661 2.395c1.637.391 3.288.777 4.952 1.159l.447-1.949a614.147 614.147 0 01-4.935-1.155l-.464 1.945zm9.737 2.236c1.607.355 3.225.705 4.857 1.051l.415-1.956a580.301 580.301 0 01-4.84-1.048l-.432 1.953zm9.787 2.077c1.635.333 3.282.661 4.941.985l.383-1.963c-1.654-.323-3.295-.65-4.925-.982l-.399 1.96zm9.772 1.91c1.621.304 3.254.603 4.899.898l.353-1.968a640.983 640.983 0 01-4.884-.896l-.368 1.966zm9.868 1.771c1.639.281 3.29.558 4.952.831l.323-1.974a724.552 724.552 0 01-4.937-.828l-.338 1.971zm9.812 1.61c1.63.256 3.271.507 4.923.753l.296-1.978a681.266 681.266 0 01-4.91-.751l-.309 1.976zm9.911 1.48c1.653.236 3.318.466 4.992.692l.268-1.982c-1.67-.225-3.33-.455-4.979-.69l-.281 1.98zm9.865 1.334c1.634.209 3.277.415 4.931.616l.241-1.986c-1.649-.2-3.288-.405-4.918-.614l-.254 1.984zm9.921 1.205c1.674.192 3.357.38 5.05.563l.215-1.988c-1.689-.183-3.368-.37-5.037-.562l-.228 1.987zm9.936 1.076c1.633.167 3.274.329 4.925.486l.19-1.99c-1.646-.158-3.284-.32-4.912-.485l-.203 1.989zm9.904.947c1.669.149 3.348.294 5.035.434l.166-1.993c-1.684-.14-3.358-.284-5.023-.433l-.178 1.992zm10.028.835a880.5 880.5 0 004.906.364l.143-1.995c-1.64-.117-3.272-.238-4.895-.363l-.154 1.994zm9.864.704c1.66.109 3.33.214 5.008.314l.119-1.996a922.904 922.904 0 01-4.996-.314l-.131 1.996zm10.067.602c1.644.089 3.295.174 4.955.255l.097-1.998a832.82 832.82 0 01-4.944-.254l-.108 1.997zm9.88.482c1.649.071 3.307.138 4.972.201l.076-1.998c-1.662-.063-3.316-.13-4.962-.202l-.086 1.999zm9.992.379c1.681.054 3.37.105 5.067.151l.055-1.999c-1.694-.046-3.379-.097-5.057-.151l-.065 1.999zm10.02.274c1.636.037 3.279.069 4.929.097l.034-1.999c-1.647-.029-3.286-.061-4.918-.097l-.045 1.999zm9.901.171c1.665.02 3.337.037 5.017.049l.015-2c-1.677-.012-3.346-.029-5.007-.049l-.025 2zm10.078.074c.847.002 1.696.003 2.547.003v-2c-.849 0-1.697-.001-2.542-.003l-.005 2zM361 281c.866 0 1.728-.003 2.587-.008l-.012-2c-.855.005-1.713.008-2.575.008v2zm7.702-.07a409.79 409.79 0 005.038-.124l-.061-1.999c-1.658.051-3.329.092-5.013.123l.036 2zm9.999-.309c1.641-.071 3.269-.153 4.885-.245l-.113-1.996c-1.607.091-3.227.172-4.859.243l.087 1.998zm9.837-.559a361.47 361.47 0 005.105-.396l-.17-1.993c-1.677.143-3.368.274-5.075.394l.14 1.995zm10.122-.859c1.658-.166 3.302-.342 4.931-.53l-.229-1.987c-1.619.187-3.253.362-4.901.527l.199 1.99zm9.777-1.125c1.679-.219 3.344-.45 4.992-.693l-.291-1.979c-1.638.241-3.291.471-4.961.689l.26 1.983zm10.023-1.478c1.66-.274 3.304-.559 4.933-.857l-.36-1.967c-1.617.295-3.25.579-4.899.851l.326 1.973zm9.771-1.786c1.624-.326 3.232-.665 4.823-1.016l-.43-1.953c-1.58.348-3.176.684-4.788 1.009l.395 1.96zm9.81-2.166c1.644-.397 3.271-.806 4.879-1.228l-.508-1.935c-1.595.419-3.209.825-4.84 1.218l.469 1.945zm9.652-2.533a237.32 237.32 0 004.711-1.393l-.587-1.912c-1.539.473-3.096.933-4.671 1.381l.547 1.924zm9.585-2.95a220.723 220.723 0 004.757-1.639l-.673-1.883a222.247 222.247 0 01-4.714 1.624l.63 1.898zm9.398-3.359a202.931 202.931 0 004.61-1.833l-.761-1.849a208.666 208.666 0 01-4.566 1.815l.717 1.867zm9.294-3.83c1.54-.68 3.06-1.374 4.558-2.082l-.855-1.808c-1.482.7-2.986 1.387-4.511 2.06l.808 1.83zm8.99-4.247a182.431 182.431 0 004.474-2.333l-.949-1.76a185.613 185.613 0 01-4.426 2.308l.901 1.785zm8.887-4.791a175.503 175.503 0 004.279-2.543l-1.045-1.704a178.702 178.702 0 01-4.231 2.513l.997 1.734zm8.481-5.203a170.431 170.431 0 004.205-2.837l-1.143-1.641a166.484 166.484 0 01-4.156 2.804l1.094 1.674zm8.269-5.757a165.13 165.13 0 003.929-3.005l-1.239-1.57a163.744 163.744 0 01-3.881 2.968l1.191 1.607zm7.867-6.21a162.273 162.273 0 003.793-3.286l-1.333-1.492a157.992 157.992 0 01-3.746 3.246l1.286 1.532zm7.443-6.65a163.293 163.293 0 003.609-3.539l-1.423-1.406a157.142 157.142 0 01-3.564 3.495l1.378 1.45zm7.084-7.166a159.584 159.584 0 003.33-3.698l-1.507-1.315a160.027 160.027 0 01-3.289 3.652l1.466 1.361zm6.587-7.547c1.066-1.3 2.107-2.61 3.124-3.932l-1.585-1.22a164.473 164.473 0 01-3.085 3.884l1.546 1.268zm6.104-7.926a166.654 166.654 0 002.89-4.128l-1.655-1.122a162.685 162.685 0 01-2.856 4.078l1.621 1.172zm5.644-8.321a175.52 175.52 0 002.614-4.247l-1.719-1.024a168.42 168.42 0 01-2.583 4.198l1.688 1.073zm5.13-8.613a181.019 181.019 0 002.379-4.411l-1.774-.925a173.438 173.438 0 01-2.352 4.362l1.747.974zm4.628-8.873a187.77 187.77 0 002.141-4.552l-1.821-.827a183.751 183.751 0 01-2.118 4.503l1.798.876zm4.152-9.137c.651-1.54 1.281-3.085 1.89-4.634l-1.861-.732a197.781 197.781 0 01-1.871 4.587l1.842.779zm3.671-9.331c.572-1.57 1.124-3.143 1.656-4.718l-1.895-.64a205.708 205.708 0 01-1.64 4.672l1.879.686zm3.204-9.486c.499-1.601.978-3.203 1.438-4.806l-1.922-.552a221.094 221.094 0 01-1.425 4.763l1.909.595zm2.76-9.618c.428-1.625.836-3.249 1.226-4.873l-1.945-.467c-.387 1.61-.791 3.221-1.215 4.831l1.934.509zm2.343-9.755c.355-1.63.692-3.258 1.012-4.883l-1.962-.386a243.711 243.711 0 01-1.004 4.843l1.954.426zm1.935-9.83c.29-1.646.563-3.289.819-4.926l-1.976-.31a252.686 252.686 0 01-.813 4.888l1.97.348zm1.547-9.88a279.2 279.2 0 00.639-4.979l-1.986-.236a284.541 284.541 0 01-.634 4.943l1.981.272zm1.182-9.918c.17-1.682.325-3.356.464-5.02l-1.993-.167a284.689 284.689 0 01-.461 4.985l1.99.202zm.839-10a312.7 312.7 0 00.293-4.987l-1.998-.1c-.083 1.64-.179 3.29-.291 4.953l1.996.133zm.506-10.012c.057-1.662.101-3.31.132-4.945l-2-.038a318.89 318.89 0 01-.131 4.914l1.999.069zm.189-10.008c.006-1.675-.001-3.332-.02-4.971l-2 .023c.019 1.629.026 3.276.02 4.94l2 .008zm-.114-9.998a353.468 353.468 0 00-.168-4.994l-1.998.081c.066 1.632.122 3.287.166 4.965l2-.052zm-.407-9.986a353.6 353.6 0 00-.311-5.009l-1.996.139c.114 1.63.217 3.29.31 4.98l1.997-.11zm-.691-9.98a361.727 361.727 0 00-.453-4.998l-1.991.195c.158 1.616.309 3.273.451 4.97l1.993-.167zm-.976-9.98c-.19-1.697-.387-3.34-.587-4.926l-1.984.25a351.7 351.7 0 01.584 4.9l1.987-.224zm-1.261-9.957c-.244-1.722-.49-3.358-.733-4.904l-1.975.31c.241 1.536.485 3.163.727 4.875l1.981-.28zm-1.536-9.765a279.1 279.1 0 00-.905-4.95l-1.964.378c.278 1.443.581 3.086.899 4.914l1.97-.342z" fill="#715F7A"/></svg>
